public/images/quotes2.svg

<svg xmlns="http://www.w3.org/2000/svg" xmlns:xlink="http://www.w3.org/1999/xlink" width="1080" zoomAndPan="magnify" viewBox="0 0 810 809.999993" height="1080" preserveAspectRatio="xMidYMid meet" version="1.0"><path fill="#fb653e" d="M 322.640625 285.824219 C 367.226562 285.824219 399.449219 322.695312 399.414062 377.253906 C 399.160156 456.527344 339.585938 512.613281 253.648438 523.386719 C 245.683594 524.371094 242.628906 513.304688 249.9375 510.066406 C 282.925781 495.363281 299.582031 476.761719 301.726562 458.347656 C 303.328125 444.550781 295.871094 432.503906 286.453125 430.246094 C 262.121094 424.386719 245.828125 394.070312 245.828125 362.695312 C 245.828125 320.257812 280.199219 285.824219 322.640625 285.824219 Z M 322.640625 285.824219 " fill-opacity="1" fill-rule="nonzero"/><path fill="#fb653e" d="M 490.226562 285.824219 C 534.8125 285.824219 567.035156 322.695312 567 377.253906 C 566.746094 456.527344 507.171875 512.613281 421.234375 523.386719 C 413.269531 524.371094 410.214844 513.304688 417.523438 510.066406 C 450.511719 495.363281 467.167969 476.761719 469.3125 458.347656 C 470.914062 444.550781 463.457031 432.503906 454.039062 430.246094 C 429.707031 424.386719 413.414062 394.070312 413.414062 362.695312 C 413.414062 320.257812 447.785156 285.824219 490.226562 285.824219 Z M 490.226562 285.824219 " fill-opacity="1" fill-rule="nonzero"/></svg>

<svg xmlns="http://www.w3.org/2000/svg" width="1080" height="1080" version="1.0" viewBox="0 0 810 810"><path fill="#fb653e" d="M322.64 285.824c44.587 0 76.81 36.871 76.774 91.43-.254 79.273-59.828 135.36-145.766 146.133-7.964.984-11.02-10.082-3.71-13.32 32.988-14.704 49.644-33.305 51.789-51.72 1.601-13.796-5.856-25.843-15.274-28.1-24.332-5.86-40.625-36.177-40.625-67.552 0-42.437 34.371-76.87 76.813-76.87ZM490.227 285.824c44.586 0 76.808 36.871 76.773 91.43-.254 79.273-59.828 135.36-145.766 146.133-7.964.984-11.02-10.082-3.71-13.32 32.988-14.704 49.644-33.305 51.788-51.72 1.602-13.796-5.855-25.843-15.273-28.1-24.332-5.86-40.625-36.177-40.625-67.552 0-42.437 34.371-76.87 76.813-76.87Zm0 0"/></svg>
